icons/status-error.svg

<svg width="16" height="16" viewBox="0 0 16 16" fill="none" xmlns="http://www.w3.org/2000/svg">
<path fill-rule="evenodd" clip-rule="evenodd" d="M8 16C3.58155 16 0 12.4185 0 8C0 3.58155 3.58155 0 8 0C12.4185 0 16 3.58155 16 8C16 12.4185 12.4185 16 8 16ZM7.97044 2.85362C7.31776 2.85362 6.82392 3.19423 6.82392 3.7444V8.79055C6.82392 9.34129 7.31769 9.68076 7.97044 9.68076C8.60719 9.68076 9.11696 9.32708 9.11696 8.79055V3.7444C9.11689 3.2073 8.60719 2.85362 7.97044 2.85362ZM6.83303 11.9555C6.83303 11.3279 7.34337 10.8176 7.97044 10.8176C8.5975 10.8176 9.10721 11.3279 9.10727 11.9555C9.10727 12.582 8.5975 13.0923 7.97044 13.0923C7.34337 13.0923 6.83303 12.582 6.83303 11.9555Z" fill="currentColor"/>
<mask style="mask-type:luminance" maskUnits="userSpaceOnUse" x="0" y="0" width="16" height="16">
<path fill-rule="evenodd" clip-rule="evenodd" d="M8 0C12.416 0 16 3.584 16 8C16 12.416 12.416 16 8 16C3.584 16 0 12.416 0 8C0 3.584 3.584 0 8 0ZM6.84425 9.18186L10.5243 5.44774C10.8478 5.12217 11.3778 5.11679 11.708 5.43573C11.7119 5.43948 11.7602 5.4879 11.7602 5.4879C12.0799 5.80891 12.0799 6.32322 11.7602 6.64423L6.84425 11.6L4.23978 8.9783C3.92202 8.65924 3.91981 8.14874 4.23479 7.82702L4.26579 7.79535C4.58673 7.46755 5.11644 7.4583 5.44894 7.7747C5.45433 7.77983 6.84425 9.18186 6.84425 9.18186Z" fill="white"/>
</mask>
</svg>

<svg width="16" height="16" viewBox="0 0 16 16" fill="none" xmlns="http://www.w3.org/2000/svg">
  <path fill="currentColor" fill-rule="evenodd" d="M8 16a8 8 0 1 1 8-8 8 8 0 0 1-8 8ZM7.97 2.854c-.652 0-1.146.34-1.146.89v5.047c0 .55.494.89 1.146.89.637 0 1.147-.354 1.147-.89V3.744c0-.537-.51-.89-1.147-.89Zm-1.137 9.102c0-.628.51-1.138 1.137-1.138a1.138 1.138 0 0 1 0 2.274c-.627 0-1.137-.51-1.137-1.136Z" clip-rule="evenodd"/>
</svg>
